%
(Header)
(Generated by gcodetools from Inkscape.)
(Using default header. To add your own header create file "header" in the output dir.)
M3
(Header end.)
G21 (All units in mm)

(Start cutting path id: path3713)
(Change tool to Default tool)

G00 Z5.000000
G00 X5.080000 Y53.904444

G01 Z-0.125000 F100.0(Penetrate)
G01 X5.080000 Y54.186667 Z-0.125000 F400.000000
G01 X-5.080000 Y54.186667 Z-0.125000
G01 X-5.080000 Y53.904444 Z-0.125000
G01 X-2.822223 Y41.204444 Z-0.125000
G01 X2.822222 Y41.204444 Z-0.125000
G01 X5.080000 Y53.904444 Z-0.125000
G00 Z5.000000

(End cutting path id: path3713)


(Start cutting path id: path3713)
(Change tool to Default tool)

G00 Z5.000000
G00 X-8.446940 Y34.994751

G01 Z-0.125000 F100.0(Penetrate)
G01 X-8.466667 Y35.560000 Z-0.125000 F400.000000
G01 X-8.446037 Y36.150601 Z-0.125000
G01 X-8.384258 Y36.738331 Z-0.125000
G01 X-8.281642 Y37.320319 Z-0.125000
G01 X-8.138668 Y37.893729 Z-0.125000
G01 X-7.956071 Y38.455769 Z-0.125000
G01 X-7.734695 Y39.003704 Z-0.125000
G01 X-7.475615 Y39.534846 Z-0.125000
G01 X-7.180129 Y40.046656 Z-0.125000
G01 X-6.849675 Y40.536565 Z-0.125000
G01 X-6.485834 Y41.002260 Z-0.125000
G01 X-6.090412 Y41.441426 Z-0.125000
G01 X-5.665301 Y41.851947 Z-0.125000
G01 X-5.212588 Y42.231818 Z-0.125000
G01 X-4.734504 Y42.579177 Z-0.125000
G01 X-4.233334 Y42.892359 Z-0.125000
G01 X-3.733941 Y43.157874 Z-0.125000
G01 X-5.245411 Y51.659931 Z-0.125000
G01 X-6.343340 Y51.260304 Z-0.125000
G01 X-7.423094 Y50.779567 Z-0.125000
G01 X-8.466667 Y50.224690 Z-0.125000
G01 X-9.469007 Y49.598354 Z-0.125000
G01 X-10.425205 Y48.903636 Z-0.125000
G01 X-11.330602 Y48.143922 Z-0.125000
G01 X-12.180824 Y47.322881 Z-0.125000
G01 X-12.971696 Y46.444521 Z-0.125000
G01 X-13.699349 Y45.513159 Z-0.125000
G01 X-14.360285 Y44.533312 Z-0.125000
G01 X-14.951259 Y43.509720 Z-0.125000
G01 X-15.469362 Y42.447408 Z-0.125000
G01 X-15.912113 Y41.351539 Z-0.125000
G01 X-16.277365 Y40.227447 Z-0.125000
G01 X-16.563284 Y39.080637 Z-0.125000
G01 X-16.768544 Y37.916660 Z-0.125000
G01 X-16.892073 Y36.741207 Z-0.125000
G01 X-16.933334 Y35.560000 Z-0.125000
G01 X-16.892073 Y34.378793 Z-0.125000
G01 X-16.768544 Y33.203340 Z-0.125000
G01 X-16.565655 Y32.052711 Z-0.125000
G01 X-8.446940 Y34.994751 Z-0.125000
G00 Z5.000000

(End cutting path id: path3713)


(Start cutting path id: path3713)
(Change tool to Default tool)

G00 Z5.000000
G00 X16.768544 Y33.203340

G01 Z-0.125000 F100.0(Penetrate)
G01 X16.892072 Y34.378793 Z-0.125000 F400.000000
G01 X16.933333 Y35.560000 Z-0.125000
G01 X16.892072 Y36.741207 Z-0.125000
G01 X16.768544 Y37.916660 Z-0.125000
G01 X16.563283 Y39.080637 Z-0.125000
G01 X16.277364 Y40.227447 Z-0.125000
G01 X15.912112 Y41.351539 Z-0.125000
G01 X15.469362 Y42.447408 Z-0.125000
G01 X14.951258 Y43.509720 Z-0.125000
G01 X14.360285 Y44.533312 Z-0.125000
G01 X13.699349 Y45.513159 Z-0.125000
G01 X12.971695 Y46.444521 Z-0.125000
G01 X12.180824 Y47.322881 Z-0.125000
G01 X11.330601 Y48.143922 Z-0.125000
G01 X10.425204 Y48.903636 Z-0.125000
G01 X9.469007 Y49.598354 Z-0.125000
G01 X8.466666 Y50.224690 Z-0.125000
G01 X7.423093 Y50.779567 Z-0.125000
G01 X6.343339 Y51.260304 Z-0.125000
G01 X5.245410 Y51.659931 Z-0.125000
G01 X3.733941 Y43.157874 Z-0.125000
G01 X4.233333 Y42.892359 Z-0.125000
G01 X4.734503 Y42.579177 Z-0.125000
G01 X5.212588 Y42.231818 Z-0.125000
G01 X5.665300 Y41.851947 Z-0.125000
G01 X6.090412 Y41.441426 Z-0.125000
G01 X6.485833 Y41.002260 Z-0.125000
G01 X6.849674 Y40.536565 Z-0.125000
G01 X7.180128 Y40.046656 Z-0.125000
G01 X7.475615 Y39.534846 Z-0.125000
G01 X7.734695 Y39.003704 Z-0.125000
G01 X7.956070 Y38.455769 Z-0.125000
G01 X8.138668 Y37.893729 Z-0.125000
G01 X8.281642 Y37.320319 Z-0.125000
G01 X8.384258 Y36.738331 Z-0.125000
G01 X8.446036 Y36.150601 Z-0.125000
G01 X8.466666 Y35.560000 Z-0.125000
G01 X8.446939 Y34.994751 Z-0.125000
G01 X16.565654 Y32.052711 Z-0.125000
G01 X16.768544 Y33.203340 Z-0.125000
G00 Z5.000000

(End cutting path id: path3713)


(Start cutting path id: path3713)
(Change tool to Default tool)

G00 Z5.000000
G00 X-13.346741 Y21.988356

G01 Z-0.125000 F100.0(Penetrate)
G01 X-3.477119 Y30.293677 Z-0.125000 F400.000000
G01 X-6.299341 Y35.181896 Z-0.125000
G01 X-18.426741 Y30.787199 Z-0.125000
G01 X-18.671173 Y30.646088 Z-0.125000
G01 X-13.591173 Y21.847245 Z-0.125000
G01 X-13.346741 Y21.988356 Z-0.125000
G00 Z5.000000

(End cutting path id: path3713)


(Start cutting path id: path3713)
(Change tool to Default tool)

G00 Z5.000000
G00 X18.671173 Y30.646088

G01 Z-0.125000 F100.0(Penetrate)
G01 X18.426740 Y30.787199 Z-0.125000 F400.000000
G01 X6.299341 Y35.181896 Z-0.125000
G01 X3.477119 Y30.293677 Z-0.125000
G01 X13.346740 Y21.988356 Z-0.125000
G01 X13.591173 Y21.847245 Z-0.125000
G01 X18.671173 Y30.646088 Z-0.125000
G00 Z5.000000

(End cutting path id: path3713)


(Start cutting path id: path3713)
(Change tool to Default tool)

G00 Z5.000000
G00 X1.770013 Y18.719433

G01 Z-0.125000 F100.0(Penetrate)
G01 X2.940445 Y18.883912 Z-0.125000 F400.000000
G01 X4.096540 Y19.129671 Z-0.125000
G01 X5.232682 Y19.455440 Z-0.125000
G01 X6.343339 Y19.859695 Z-0.125000
G01 X7.423093 Y20.340433 Z-0.125000
G01 X8.466666 Y20.895310 Z-0.125000
G01 X9.469007 Y21.521646 Z-0.125000
G01 X10.425204 Y22.216364 Z-0.125000
G01 X11.320244 Y22.967385 Z-0.125000
G01 X4.712970 Y28.527361 Z-0.125000
G01 X4.233333 Y28.227641 Z-0.125000
G01 X3.711532 Y27.950216 Z-0.125000
G01 X3.171670 Y27.709848 Z-0.125000
G01 X2.616344 Y27.507720 Z-0.125000
G01 X2.048267 Y27.344821 Z-0.125000
G01 X1.470219 Y27.221970 Z-0.125000
G01 X0.885006 Y27.139731 Z-0.125000
G01 X0.295481 Y27.098498 Z-0.125000
G01 X-0.295481 Y27.098498 Z-0.125000
G01 X-0.885007 Y27.139731 Z-0.125000
G01 X-1.470220 Y27.221970 Z-0.125000
G01 X-2.048268 Y27.344821 Z-0.125000
G01 X-2.616344 Y27.507720 Z-0.125000
G01 X-3.171670 Y27.709848 Z-0.125000
G01 X-3.711533 Y27.950216 Z-0.125000
G01 X-4.233334 Y28.227641 Z-0.125000
G01 X-4.712970 Y28.527361 Z-0.125000
G01 X-11.320244 Y22.967385 Z-0.125000
G01 X-10.425205 Y22.216364 Z-0.125000
G01 X-9.469007 Y21.521646 Z-0.125000
G01 X-8.466667 Y20.895310 Z-0.125000
G01 X-7.423094 Y20.340433 Z-0.125000
G01 X-6.343340 Y19.859695 Z-0.125000
G01 X-5.232683 Y19.455440 Z-0.125000
G01 X-4.096541 Y19.129671 Z-0.125000
G01 X-2.940445 Y18.883912 Z-0.125000
G01 X-1.770013 Y18.719433 Z-0.125000
G01 X-0.590962 Y18.636996 Z-0.125000
G01 X0.590962 Y18.636996 Z-0.125000
G01 X1.770013 Y18.719433 Z-0.125000
G00 Z5.000000

(End cutting path id: path3713)


(Footer)
M5
G00 X0.0000 Y0.0000
M2
(Using default footer. To add your own footer create file "footer" in the output dir.)
(end)
%